X:1
T:Birks of Delhandy, The
T:Birks of Delhandy, The
T:Alexander Walker
C:Alexander Walker
L:1/8
Q:1/4=120
M:4/4
K:D
V:1 treble 
V:1
"^Slow" (F>E) | D2 F>G A2 G>F | G>ATB>G{B} A2 F>E | D2 d>c B>AG>F |{F} E6 F>E | D2 TF>G A2 G<F | %6
 G>AB<G{B} A2 G>F | G>AB<G{B} A2 G>F | G>AB<G A<A,B,>C | D6 :| d>e | Tf>ed>c d2 c>d | %12
 TB>cB>A F2 E>D | d>cd>e f>ed>c | B6 F>E | D>EF<G A2 G<F | G>BF<d{F} E2 F>E | D<df>G A>A,B,>C | %18
 D6 d>e | f3 g e3 f | d3 e B3 d | D2 d>c B>AG>F | TE6 F>E | D3 F B,3 D | A,2 D2 F2 f>e | %25
 F>GA<A, B,2 C2 | D6 || %27

